img/logo.svg

<?xml version="1.0" encoding="UTF-8"?>
	<svg viewBox="0 0 410 411" xmlns="http://www.w3.org/2000/svg">
	<path d="m283.78 410.22l-63.016-63.016 63.016-63.016-63.016-63.016 125.61-125.61 63.435 62.598-63.016 63.015 63.016 63.016-126.03 126.03zm-204.8-346.58l63.016-63.016 63.017 63.014 63.043-63.043 63.016 63.016-126.06 126.06-126.03-126.03zm47.263 220.55l63.016 63.016-63.016 63.016-126.03-126.03 63.016-63.016-63.016-63.015 63.016-63.016 126.03 126.03-63.016 63.016z" fill="#000000" fill-rule="evenodd"/>
</svg>

<?xml version="1.0" encoding="UTF-8" standalone="no"?>
<svg 
 xmlns="http://www.w3.org/2000/svg"
 xmlns:xlink="http://www.w3.org/1999/xlink"
 width="410px" height="411px">
<path fill-rule="evenodd"  fill="rgb(9, 121, 197)"
 d="M283.784,410.222 L220.768,347.206 L283.784,284.190 L220.768,221.174 L346.381,95.561 L409.816,158.159 L346.800,221.174 L409.816,284.190 L283.784,410.222 ZM78.981,63.637 L141.997,0.621 L205.014,63.635 L268.057,0.592 L331.073,63.608 L205.014,189.667 L78.981,63.637 ZM126.244,284.190 L189.260,347.206 L126.244,410.222 L0.212,284.190 L63.228,221.174 L0.212,158.159 L63.228,95.143 L189.260,221.174 L126.244,284.190 Z"/>
</svg>
